X: 42362
T: Welcome To October
R: jig
M: 6/8
K: Gmajor
|EEE E2 B|Be^c dBA|GFE FED|CAG FED|
EEE E2 B|Be^c dBA|G2 A BdB|AGF E2 e:|
eBB Bef|gfe fed|AAA A2 A|AAA A2 e|
eBB Bef|gfe fed|G2 A BdB|AGF E3:|

